X: 1715
T: Anything For John Joe
R: reel
M: 4/4
K: Dmixolydian
F2AF G2BG|F2AF E2DE|F2AF G2BG|ABcA d3z:|
f2f2 e2de|faaf e2de|1 f2fd efed|cABc d3z:|2 f2f2 e2de|faaf e2de||

